!!!COM:	Josquin des Pres
**kern	**kern
*part2	*part1
*staff2	*staff1
*clefF4	*clefGv2
*k[]	*k[]
*M2/1	*M2/1
=1-	=1-
1D	0d
1G	.
=2	=2
1A	1.c
[1c	.
.	4B
.	4A
=3	=3
2c]	1G
4B	.
4A	.
1B	1G
=4	=4
1A	2F
.	2.c
1F	.
.	4A
.	[2d
=5	=5
2.G	4d]
.	4c
.	4B
4F	4A
2D	1B
2G	.
=6	=6
2C	1c
1c	.
.	1A
4B	.
4A	.
=7	=7
1B	2G
.	1B
1E	.
.	2c
=8	=8
2D	2.d
1F	.
.	4c
.	2A
2E	[2B
=9	=9
2.D	4B]
.	4c
.	2d
8EL	.
8FJ	.
2E	2G
[2D	2A
=10	=10
4D]	2B
4C	.
2AA	1A
1BB	.
.	2G
=11	=11
0AA	0A
==	==
*-	*-
